Catalina-light/apps/scalable/katalina.svg

<?xml version="1.0" encoding="UTF-8" standalone="no"?>
<!-- Created with Inkscape (http://www.inkscape.org/) -->

<svg
   xmlns:dc="http://purl.org/dc/elements/1.1/"
   xmlns:cc="http://creativecommons.org/ns#"
   xmlns:rdf="http://www.w3.org/1999/02/22-rdf-syntax-ns#"
   xmlns:svg="http://www.w3.org/2000/svg"
   xmlns="http://www.w3.org/2000/svg"
   xmlns:xlink="http://www.w3.org/1999/xlink"
   xmlns:sodipodi="http://sodipodi.sourceforge.net/DTD/sodipodi-0.dtd"
   xmlns:inkscape="http://www.inkscape.org/namespaces/inkscape"
   version="1.1"
   id="svg2"
   width="128"
   height="128"
   viewBox="0 0 128 128"
   sodipodi:docname="katalina.svg"
   inkscape:version="0.92.4 (5da689c313, 2019-01-14)">
  <metadata
     id="metadata8">
    <rdf:RDF>
      <cc:Work
         rdf:about="">
        <dc:format>image/svg+xml</dc:format>
        <dc:type
           rdf:resource="http://purl.org/dc/dcmitype/StillImage" />
        <dc:title></dc:title>
      </cc:Work>
    </rdf:RDF>
  </metadata>
  <defs
     id="defs6">
    <linearGradient
       inkscape:collect="always"
       id="linearGradient878">
      <stop
         style="stop-color:#38beff;stop-opacity:1"
         offset="0"
         id="stop874" />
      <stop
         style="stop-color:#0f6df0;stop-opacity:1"
         offset="1"
         id="stop876" />
    </linearGradient>
    <linearGradient
       inkscape:collect="always"
       id="linearGradient870">
      <stop
         style="stop-color:#ffb07b;stop-opacity:1"
         offset="0"
         id="stop866" />
      <stop
         style="stop-color:#f96400;stop-opacity:1"
         offset="1"
         id="stop868" />
    </linearGradient>
    <linearGradient
       inkscape:collect="always"
       id="linearGradient833">
      <stop
         style="stop-color:#e8ebee;stop-opacity:1"
         offset="0"
         id="stop829" />
      <stop
         style="stop-color:#f6f7f9;stop-opacity:1"
         offset="1"
         id="stop831" />
    </linearGradient>
    <linearGradient
       inkscape:collect="always"
       id="linearGradient823">
      <stop
         style="stop-color:#d6dce1;stop-opacity:1"
         offset="0"
         id="stop819" />
      <stop
         style="stop-color:#f6f7f9;stop-opacity:1"
         offset="1"
         id="stop821" />
    </linearGradient>
    <linearGradient
       inkscape:collect="always"
       xlink:href="#linearGradient823"
       id="linearGradient825"
       x1="-741.83197"
       y1="959.04749"
       x2="-741.83197"
       y2="93.836403"
       gradientUnits="userSpaceOnUse"
       gradientTransform="matrix(0.13667801,0,0,0.13667801,162.31231,-5.989337)" />
    <linearGradient
       inkscape:collect="always"
       xlink:href="#linearGradient833"
       id="linearGradient835"
       x1="-738.76385"
       y1="931.43433"
       x2="-738.76385"
       y2="152.13077"
       gradientUnits="userSpaceOnUse"
       gradientTransform="matrix(0.13667801,0,0,0.13667801,162.31231,-5.989337)" />
    <linearGradient
       inkscape:collect="always"
       xlink:href="#linearGradient870"
       id="linearGradient872"
       x1="32.108864"
       y1="40.810108"
       x2="80.708764"
       y2="57.301278"
       gradientUnits="userSpaceOnUse" />
    <linearGradient
       inkscape:collect="always"
       xlink:href="#linearGradient878"
       id="linearGradient880"
       x1="59.245464"
       y1="64.002411"
       x2="100.21329"
       y2="72.677551"
       gradientUnits="userSpaceOnUse" />
  </defs>
  <sodipodi:namedview
     pagecolor="#ffffff"
     bordercolor="#666666"
     borderopacity="1"
     objecttolerance="10"
     gridtolerance="10"
     guidetolerance="10"
     inkscape:pageopacity="0"
     inkscape:pageshadow="2"
     inkscape:window-width="1920"
     inkscape:window-height="1022"
     id="namedview4"
     showgrid="false"
     inkscape:zoom="5.2149126"
     inkscape:cx="72.861075"
     inkscape:cy="56.54655"
     inkscape:window-x="0"
     inkscape:window-y="30"
     inkscape:window-maximized="1"
     inkscape:current-layer="svg2" />
  <circle
     style="opacity:1;fill:url(#linearGradient825);fill-opacity:1;stroke:none;stroke-width:0.78699166;stroke-linecap:round;stroke-linejoin:round;stroke-miterlimit:4;stroke-dasharray:none;stroke-opacity:1"
     id="path817"
     cx="63.591888"
     cy="64.286316"
     r="61.380009" />
  <circle
     r="55.089832"
     cy="64.286316"
     cx="63.591888"
     id="circle827"
     style="opacity:1;fill:url(#linearGradient835);fill-opacity:1;stroke:none;stroke-width:0.70634133;stroke-linecap:round;stroke-linejoin:round;stroke-miterlimit:4;stroke-dasharray:none;stroke-opacity:1" />
  <g
     id="g864"
     transform="translate(-1.8980336,-1.1688654)">
    <path
       inkscape:connector-curvature="0"
       id="rect848"
       d="M 29.616014,37.997889 V 76.604667 H 50.270566 V 73.624284 H 33.77856 V 48.169486 h 42.010075 v 8.847906 h 4.920129 V 37.997889 Z m 12.426031,27.740868 v 6.473591 h 8.228521 v -6.473591 z"
       style="opacity:1;fill:url(#linearGradient872);fill-opacity:1;stroke:none;stroke-width:1.61972976;stroke-linecap:round;stroke-miterlimit:4;stroke-dasharray:none;stroke-opacity:1" />
    <path
       style="opacity:1;fill:url(#linearGradient880);fill-opacity:1;stroke:none;stroke-width:1.61972976;stroke-linecap:round;stroke-miterlimit:4;stroke-dasharray:none;stroke-opacity:1"
       d="M 50.271074,57.017557 V 95.624338 H 101.36383 V 57.017557 Z M 54.43362,67.189154 H 96.443701 V 92.643953 H 54.43362 Z m 8.263485,17.569272 v 6.473591 h 26.240687 v -6.473591 z"
       id="path856"
       inkscape:connector-curvature="0" />
  </g>
</svg>

<svg width="128" height="128" version="1.1" viewBox="0 0 128 128" xmlns="http://www.w3.org/2000/svg">
<defs>
<linearGradient id="linearGradient825" x1="-741.83" x2="-741.83" y1="959.05" y2="93.836" gradientTransform="matrix(.13668 0 0 .13668 162.31 -5.9893)" gradientUnits="userSpaceOnUse"/>
<linearGradient id="linearGradient835" x1="-738.76" x2="-738.76" y1="931.43" y2="152.13" gradientTransform="matrix(.13668 0 0 .13668 162.31 -5.9893)" gradientUnits="userSpaceOnUse"/>
<linearGradient id="linearGradient872" x1="32.109" x2="80.709" y1="40.81" y2="57.301" gradientUnits="userSpaceOnUse"/>
<linearGradient id="linearGradient880" x1="59.245" x2="100.21" y1="64.002" y2="72.678" gradientUnits="userSpaceOnUse"/>
</defs>
<circle cx="63.592" cy="64.286" r="61.38" fill="url(#linearGradient825)"/>
<circle cx="63.592" cy="64.286" r="55.09" fill="url(#linearGradient835)"/>
<g transform="translate(-1.898 -1.1689)">
<path d="m29.616 37.998v38.607h20.655v-2.9804h-16.492v-25.455h42.01v8.8479h4.9201v-19.02zm12.426 27.741v6.4736h8.2285v-6.4736z" fill="url(#linearGradient872)"/>
<path d="m50.271 57.018v38.607h51.093v-38.607zm4.1625 10.172h42.01v25.455h-42.01zm8.2635 17.569v6.4736h26.241v-6.4736z" fill="url(#linearGradient880)"/>
</g>
</svg>
